X: 1134
T: Teahan's No. 2
M: 12/8
L: 1/8
R: slide
K: G Major
|: e |
d3 dcd e2 d c2 e | dcA c2 A G2 A c2 e |
ded d2 d e2 d c2 e | dcA c2 A G3 G2 :|
|: e | 
g2 g dcd e2 d c3 | dcA c2 A G2 A c2 e |
gfg d2 d e2 d c2 e | dcA c2 A G3 G2 :|
